X:180
T:The Girl From Ipanema 
C:By Antonio Carlos Jobim and Vinicius de Morales
N:TablEdited by Larry Klose and Mike Stangeland
L:1/8
Q:1/4=140
M:4/4
K:F
z8 |: "Chord symbols ov""Fmaj7"G3E E2 DG | z2 EE zE DG | "G7"z2 E2 E2 DG | zG EE zE DF | 
"Gm7"zD zD zD CE | "Gb7"zC zC zC B,2 | z2 "Fmaj7"C6 | "Gb7"z4 z4 | "Fmaj7"G3E E2 DG | 
z2 EE zE DG | "G7"z2 E2 E2 DG | zG EE zE DF | "Gm7"zD zD zD CE | "Gb7"zC zC zC B,2 | 
"Fmaj7"z2 C6 | z4 z4 | "Gbmaj7"F8 | (3z2_G2 F2 (3_E2F2 E2 | "B9"_D3_E z4 | z6 z^G | 
"F#m7"z8 | (3z2A2 _A2 (3^F2A2 F2 | "D9"E3^F z4 | z6 zA | "Gm7"z8 | (3z2B2 A2 (3G2A2 G2 | 
"Eb9"F3G z4 | z4 (3z2A2 B2 | (3"Am7"c2C2 D2 (3E2F2 G2 | "D7b9"^G6 A2 | (3"Gm7"B2B,2 C2 (3D2E2 F2 | 
"C7b9"^F6 z2 | "Fmaj7"G3E E2 DG | z2 EE zE DG | "G7"z2 E2 E2 DG | zG EE zE DA | 
"Gm7"z3F FF Dc | "Gb7"z3(3E2 (3E2E2 D2 | "Fmaj7"E8 |1 "Gb7"z8 :|2 "Gb7"z2 z(3E2 (3E2E2 D2 | 
"Fmaj7"E8 | "Gb7"z2 z(3E2 (3E2E2 D2 | "Fmaj7 Gb7"E8 | "Fmaj7"z6 z2 | 


